X:040 
T:Dimmers (reel), The 
S:Grier MS
F:file ID: cre.4/040dimm
B:CRE4.100 (MaolaitheoirÃÂÃÂÃÂÃÂ­)
L:1/8
Q:180
M:4/4
R:reel
K:G
G3A GFED|(3EFG Ac BGGc|Bcdg ecdB|cABG DcBA|
G3A GFED|(3EFG Ac BGGc|Bcdg ecdB|cABG E2 D2 ||
Bddc BGGc|Bcdg eAAc|Bcdg ecdB|cABG E2 D2|
Bddc BGGc|Bcdg eAAc|(3Bcd ef gedB|cABG DcBA |\
"final time" G8|]

%%%

